usr/share/icons/biglinux-icons-material/scalable/apps/gnome-paint.svg

<svg width="24" height="24" viewBox="0 0 24 24" fill="none" xmlns="http://www.w3.org/2000/svg">
<path fill-rule="evenodd" clip-rule="evenodd" d="M9.59602 1.1136C9.71586 1.11487 9.83041 1.09962 9.93967 1.0678C11.3755 0.973738 12.8111 0.977559 14.2467 1.07919C15.5484 1.18061 16.8085 1.46304 18.0269 1.92646C20.0525 2.7604 21.4386 4.20686 22.185 6.26582C22.6119 7.50547 22.8639 8.78019 22.9411 10.09C23.0478 11.7347 23.0096 13.3758 22.8265 15.0133C22.6895 16.1642 22.3916 17.271 21.933 18.3336C21.0824 20.1761 19.704 21.447 17.7978 22.1463C16.2531 22.6682 14.6647 22.943 13.0325 22.9706C11.1966 23.0661 9.37911 22.9287 7.57995 22.5585C4.26836 21.8208 2.22554 19.8018 1.45153 16.5017C1.12305 15.0161 0.974155 13.5124 1.00478 11.9906C0.968127 10.3724 1.13994 8.77707 1.52027 7.20469C2.33166 4.11905 4.29046 2.20697 7.39666 1.46848C8.12045 1.29153 8.85357 1.17327 9.59602 1.1136Z" fill="url(#paint0_radial_2_75)"/>
<g opacity="0.2">
<path d="M11.9067 22.9998C12.6246 23.0017 13.3423 22.9794 14.0602 22.9323C14.1695 22.9005 14.2844 22.8851 14.4042 22.8864C15.1467 22.8267 15.8799 22.7086 16.6037 22.5316C19.7099 21.7932 21.6684 19.8812 22.4798 16.7956C22.8601 15.2232 23.032 13.6278 22.9953 12.0096C23.026 10.4878 22.8772 8.98422 22.5487 7.49861C21.7747 4.19851 19.7314 2.1793 16.4199 1.44159C14.6207 1.07139 12.8034 0.933925 10.9675 1.02942C9.33527 1.05702 7.74699 1.33187 6.20229 1.85377C4.29608 2.55308 2.91746 3.82428 2.06685 5.66679C1.60826 6.72939 1.31056 7.83629 1.17356 8.98719C0.990455 10.6247 0.951978 12.2657 1.05867 13.9104C1.13586 15.2202 1.38791 16.4945 1.81481 17.7341C2.56121 19.7931 3.94761 21.2396 5.97322 22.0735C7.19162 22.5369 8.45149 22.8194 9.7532 22.9208C10.471 22.9717 11.1889 22.9979 11.9067 22.9998Z" fill="url(#paint1_linear_2_75)"/>
<path d="M11.9067 22.9998C12.6245 23.0017 13.3423 22.9794 14.0602 22.9323C14.1695 22.9005 14.2844 22.8851 14.4042 22.8864C15.1467 22.8267 15.8799 22.7086 16.6037 22.5316C19.7099 21.7932 21.6684 19.8812 22.4797 16.7956C22.8601 15.2232 23.032 13.6278 22.9953 12.0096C23.026 10.4878 22.8772 8.98422 22.5487 7.49861C21.7747 4.19851 19.7314 2.1793 16.4199 1.4416C14.6207 1.07139 12.8034 0.933926 10.9675 1.02942C9.33527 1.05702 7.74699 1.33187 6.20228 1.85378C4.29608 2.55308 2.91745 3.82428 2.06685 5.66679C1.60826 6.72939 1.31056 7.83629 1.17356 8.9872C0.990453 10.6247 0.951974 12.2657 1.05867 13.9104C1.13586 15.2202 1.38791 16.4945 1.81481 17.7341C2.5612 19.7931 3.94761 21.2396 5.97322 22.0735C7.19162 22.5369 8.45149 22.8194 9.7532 22.9208C10.471 22.9717 11.1889 22.9979 11.9067 22.9998Z" fill="url(#paint2_linear_2_75)"/>
<path d="M11.9067 22.9998C12.6245 23.0017 13.3423 22.9794 14.0602 22.9323C14.1695 22.9005 14.2844 22.8851 14.4042 22.8864C15.1466 22.8267 15.8799 22.7086 16.6037 22.5316C19.7099 21.7932 21.6684 19.8812 22.4797 16.7956C22.8601 15.2232 23.032 13.6278 22.9953 12.0096C23.026 10.4878 22.8772 8.98421 22.5487 7.49861C21.7747 4.1985 19.7314 2.17929 16.4199 1.44159C14.6207 1.07139 12.8034 0.933923 10.9675 1.02942C9.33526 1.05701 7.74699 1.33187 6.20228 1.85377C4.29608 2.55307 2.91745 3.82428 2.06685 5.66678C1.60825 6.72939 1.31056 7.83629 1.17356 8.98719C0.990453 10.6247 0.951974 12.2657 1.05867 13.9104C1.13586 15.2202 1.38791 16.4945 1.81481 17.7341C2.5612 19.7931 3.94761 21.2396 5.97322 22.0735C7.19162 22.5369 8.45149 22.8194 9.75319 22.9208C10.471 22.9717 11.1889 22.9979 11.9067 22.9998Z" fill="url(#paint3_linear_2_75)"/>
</g>
<mask id="mask0_2_75" style="mask-type:luminance" maskUnits="userSpaceOnUse" x="5" y="5" width="14" height="15">
<path d="M11.9138 19.034C15.6748 19.034 18.7238 15.9851 18.7238 12.224C18.7238 8.46291 15.6748 5.41396 11.9138 5.41396C8.15268 5.41396 5.10372 8.46291 5.10372 12.224C5.10372 15.9851 8.15268 19.034 11.9138 19.034Z" fill="white"/>
</mask>
<g mask="url(#mask0_2_75)">
<path d="M11.9138 19.0425C15.736 19.0425 18.8345 15.944 18.8345 12.1218C18.8345 8.29965 15.736 5.20114 11.9138 5.20114C8.09156 5.20114 4.99305 8.29965 4.99305 12.1218C4.99305 15.944 8.09156 19.0425 11.9138 19.0425Z" fill="black" fill-opacity="0.47451"/>
</g>
<path d="M11.9138 18.5914C15.6748 18.5914 18.7238 15.5424 18.7238 11.7813C18.7238 8.02026 15.6748 4.9713 11.9138 4.9713C8.15268 4.9713 5.10372 8.02026 5.10372 11.7813C5.10372 15.5424 8.15268 18.5914 11.9138 18.5914Z" fill="white"/>
<path d="M15.3188 5.88368C12.0616 4.00314 7.89663 5.11913 6.01609 8.37632C4.13555 11.6335 5.25154 15.7985 8.50873 17.679C11.7659 19.5595 15.9309 18.4436 17.8114 15.1864C19.692 11.9292 18.576 7.76422 15.3188 5.88368Z" fill="url(#paint4_linear_2_75)"/>
<path d="M15.3188 17.679C18.576 15.7985 19.692 11.6335 17.8114 8.37632C15.9309 5.11913 11.7659 4.00314 8.50873 5.88368C5.25154 7.76422 4.13555 11.9292 6.01609 15.1864C7.89663 18.4436 12.0616 19.5595 15.3188 17.679Z" fill="url(#paint5_linear_2_75)"/>
<path d="M5.10371 11.7813C5.10371 15.5424 8.15267 18.5914 11.9138 18.5914C15.6748 18.5914 18.7238 15.5424 18.7238 11.7813C18.7238 8.02026 15.6748 4.9713 11.9138 4.9713C8.15267 4.9713 5.10371 8.02026 5.10371 11.7813Z" fill="url(#paint6_linear_2_75)"/>
<path d="M7.02323 7.05272C6.62992 7.45868 6.28867 7.91202 6.00738 8.40229C7.00314 9.37668 8.0754 10.4108 8.51262 10.8819C9.25236 11.6791 10.7944 12.8436 11.9189 12.7096C12.3629 13.0219 13.3691 13.7216 13.7054 13.8875C13.6989 14.0483 13.731 14.2113 13.7889 14.3732C14.1042 15.2558 15.2831 15.8292 14.5969 16.7698C15.9476 15.9513 16.3069 14.5853 15.7346 13.611C15.3772 13.0026 14.8572 12.8029 14.4244 12.9483C14.1652 12.6551 13.1341 11.7989 12.7545 11.4864C12.5124 10.3978 11.0444 9.27497 10.1092 8.78795C9.5377 8.49031 8.23036 7.75489 7.02323 7.05272Z" fill="black" fill-opacity="0.47451"/>
<path d="M12.7668 12.3111C11.6757 13.3292 9.57645 11.7143 8.6904 10.7C7.77907 9.65676 4.37618 6.13828 4.12746 5.91009C3.87874 5.6819 3.68065 5.4001 3.90058 5.11973C4.12953 4.84668 4.44614 4.98234 4.72074 5.17862C4.99536 5.3749 9.14033 7.97846 10.3492 8.65489C11.5244 9.31256 13.5378 11.0333 12.7668 12.3111Z" fill="url(#paint7_linear_2_75)"/>
<path d="M14.5172 13.3159C10.2587 17.1148 6.77565 13.474 6.23598 12.2127C6.55512 14.4019 8.03025 16.3609 10.2587 17.1148C11.9417 17.6842 14.6274 17.671 15.8314 15.5018L14.5172 13.3159Z" fill="url(#paint8_linear_2_75)"/>
<path d="M14.4996 13.6734C14.1518 13.8327 14.1894 13.9478 13.8805 13.8981C13.6675 13.8639 11.822 12.465 11.822 12.465C11.7285 12.2405 11.8407 11.9319 12.0514 11.6876C12.2469 11.431 12.5257 11.2575 12.7647 11.3027C12.7647 11.3027 14.5143 12.8198 14.5918 13.0212C14.7042 13.3132 14.5837 13.3001 14.4996 13.6734Z" fill="#BFBFBF"/>
<path d="M14.5951 16.7679C15.9699 15.9903 16.37 14.6357 15.8272 13.6446C15.4053 12.8745 14.7127 12.7289 14.2343 13.1013C13.7597 13.4707 13.7179 13.9109 13.8595 14.3481C14.1482 15.2398 15.3093 15.8483 14.5951 16.7679Z" fill="#282828"/>
<defs>
<radialGradient id="paint0_radial_2_75" cx="0" cy="0" r="1" gradientUnits="userSpaceOnUse" gradientTransform="translate(12 1.00001) rotate(90) scale(22.0001)">
<stop stop-color="white"/>
<stop offset="1" stop-color="#BEBEBE"/>
</radialGradient>
<linearGradient id="paint1_linear_2_75" x1="1.43603" y1="5.90113" x2="17.2785" y2="15.0478" gradientUnits="userSpaceOnUse">
<stop stop-color="#FFFF00"/>
<stop offset="1" stop-color="#FFFF00" stop-opacity="0"/>
</linearGradient>
<linearGradient id="paint2_linear_2_75" x1="22.5641" y1="5.90112" x2="6.72164" y2="15.0478" gradientUnits="userSpaceOnUse">
<stop stop-color="#00FFFF"/>
<stop offset="1" stop-color="#00FFFF" stop-opacity="0"/>
</linearGradient>
<linearGradient id="paint3_linear_2_75" x1="12" y1="23" x2="12" y2="0.999998" gradientUnits="userSpaceOnUse">
<stop stop-color="#FF00FF"/>
<stop offset="1" stop-color="#FF00FF" stop-opacity="0"/>
</linearGradient>
<linearGradient id="paint4_linear_2_75" x1="17.8114" y1="15.1864" x2="8.96692" y2="10.08" gradientUnits="userSpaceOnUse">
<stop stop-color="#FFFF00"/>
<stop offset="1" stop-color="#FFFF00" stop-opacity="0"/>
</linearGradient>
<linearGradient id="paint5_linear_2_75" x1="6.01609" y1="15.1864" x2="14.8606" y2="10.08" gradientUnits="userSpaceOnUse">
<stop stop-color="#00FFFF"/>
<stop offset="1" stop-color="#00FFFF" stop-opacity="0"/>
</linearGradient>
<linearGradient id="paint6_linear_2_75" x1="11.9138" y1="4.9713" x2="11.9138" y2="15.1841" gradientUnits="userSpaceOnUse">
<stop stop-color="#FF00FF"/>
<stop offset="1" stop-color="#FF00FF" stop-opacity="0"/>
</linearGradient>
<linearGradient id="paint7_linear_2_75" x1="3.90063" y1="5.1197" x2="12.9508" y2="12.4696" gradientUnits="userSpaceOnUse">
<stop stop-color="#343434"/>
<stop offset="1" stop-color="#4D4D4D"/>
</linearGradient>
<linearGradient id="paint8_linear_2_75" x1="14.8917" y1="14.6758" x2="6.48154" y2="14.6093" gradientUnits="userSpaceOnUse">
<stop stop-color="#5596EA"/>
<stop offset="1" stop-color="#5596EA" stop-opacity="0"/>
</linearGradient>
</defs>
</svg>

<svg xmlns="http://www.w3.org/2000/svg" width="24" height="24" fill="none"><path fill="url(#a)" fill-rule="evenodd" d="M9.596 1.114c.12 0 .234-.014.344-.046a31.635 31.635 0 0 1 4.307.011c1.301.102 2.561.384 3.78.847 2.025.834 3.412 2.28 4.158 4.34.427 1.24.679 2.514.756 3.824a27.94 27.94 0 0 1-.114 4.923 11.88 11.88 0 0 1-.894 3.32c-.85 1.843-2.229 3.114-4.135 3.813a15.624 15.624 0 0 1-4.765.825 21.423 21.423 0 0 1-5.453-.413c-3.312-.737-5.354-2.756-6.128-6.056a19.046 19.046 0 0 1-.447-4.511 18.49 18.49 0 0 1 .515-4.786c.812-3.086 2.77-4.998 5.877-5.737a13.953 13.953 0 0 1 2.199-.354Z" clip-rule="evenodd"/><g opacity=".2"><path fill="url(#b)" d="M11.907 23c.718.002 1.435-.02 2.153-.068a1.18 1.18 0 0 1 .344-.046c.743-.06 1.476-.177 2.2-.354 3.106-.739 5.064-2.65 5.876-5.736a18.49 18.49 0 0 0 .515-4.786 19.04 19.04 0 0 0-.446-4.511c-.774-3.3-2.818-5.32-6.13-6.057-1.798-.37-3.616-.508-5.452-.413-1.632.028-3.22.303-4.765.825-1.906.7-3.285 1.97-4.135 3.813a11.88 11.88 0 0 0-.893 3.32 27.94 27.94 0 0 0-.115 4.923c.077 1.31.329 2.584.756 3.824.746 2.06 2.133 3.506 4.158 4.34 1.219.463 2.478.745 3.78.847.718.05 1.436.077 2.154.079Z"/><path fill="url(#c)" d="M11.907 23c.717.002 1.435-.02 2.153-.068a1.18 1.18 0 0 1 .344-.046c.743-.06 1.476-.177 2.2-.354 3.106-.739 5.064-2.65 5.876-5.736.38-1.573.552-3.168.515-4.786a19.04 19.04 0 0 0-.446-4.511c-.774-3.3-2.818-5.32-6.13-6.057-1.798-.37-3.616-.508-5.452-.413-1.632.028-3.22.303-4.765.825-1.906.7-3.285 1.97-4.135 3.813a11.88 11.88 0 0 0-.893 3.32 27.94 27.94 0 0 0-.115 4.923c.077 1.31.329 2.584.756 3.824.746 2.06 2.133 3.506 4.158 4.34 1.219.463 2.478.745 3.78.847.718.05 1.436.077 2.154.079Z"/><path fill="url(#d)" d="M11.907 23c.717.002 1.435-.02 2.153-.068a1.18 1.18 0 0 1 .344-.046c.743-.06 1.476-.177 2.2-.354 3.106-.739 5.064-2.65 5.876-5.736.38-1.573.552-3.168.515-4.786a19.04 19.04 0 0 0-.446-4.511c-.774-3.3-2.818-5.32-6.13-6.057-1.798-.37-3.616-.508-5.452-.413-1.632.028-3.22.303-4.765.825-1.906.7-3.285 1.97-4.135 3.813a11.88 11.88 0 0 0-.893 3.32 27.94 27.94 0 0 0-.115 4.923c.077 1.31.329 2.584.756 3.824.746 2.06 2.133 3.506 4.158 4.34 1.219.463 2.478.745 3.78.847.718.05 1.436.077 2.154.079Z"/></g><mask id="e" width="14" height="15" x="5" y="5" maskUnits="userSpaceOnUse" style="mask-type:luminance"><path fill="#fff" d="M11.914 19.034a6.81 6.81 0 1 0 0-13.62 6.81 6.81 0 0 0 0 13.62Z"/></mask><g mask="url(#e)"><path fill="#000" fill-opacity=".475" d="M11.914 19.043a6.92 6.92 0 1 0 0-13.842 6.92 6.92 0 0 0 0 13.841Z"/></g><path fill="#fff" d="M11.914 18.591a6.81 6.81 0 1 0 0-13.62 6.81 6.81 0 0 0 0 13.62Z"/><path fill="url(#f)" d="M15.319 5.884a6.81 6.81 0 1 0-6.81 11.795 6.81 6.81 0 0 0 6.81-11.795Z"/><path fill="url(#g)" d="M15.319 17.679a6.81 6.81 0 1 0-6.81-11.795 6.81 6.81 0 0 0 6.81 11.795Z"/><path fill="url(#h)" d="M5.104 11.781a6.81 6.81 0 1 0 13.62 0 6.81 6.81 0 0 0-13.62 0Z"/><path fill="#000" fill-opacity=".475" d="M7.023 7.053a6.81 6.81 0 0 0-1.016 1.35c.996.974 2.068 2.008 2.506 2.479.74.797 2.281 1.962 3.406 1.828.444.312 1.45 1.012 1.786 1.177-.006.161.026.324.084.486.315.883 1.494 1.456.808 2.397 1.35-.819 1.71-2.185 1.138-3.159-.358-.608-.878-.808-1.31-.663-.26-.293-1.29-1.15-1.67-1.462-.243-1.088-1.71-2.211-2.646-2.698a99.155 99.155 0 0 1-3.086-1.735Z"/><path fill="url(#i)" d="M12.767 12.311c-1.091 1.018-3.19-.597-4.077-1.611-.91-1.043-4.314-4.562-4.563-4.79-.248-.228-.446-.51-.226-.79.229-.273.545-.138.82.059.274.196 4.42 2.8 5.628 3.476 1.175.658 3.189 2.378 2.418 3.656Z"/><path fill="url(#j)" d="M14.517 13.316c-4.258 3.799-7.741.158-8.281-1.103.32 2.189 1.794 4.148 4.023 4.902 1.683.57 4.368.556 5.572-1.613l-1.314-2.186Z"/><path fill="#BFBFBF" d="M14.5 13.673c-.348.16-.31.275-.62.225-.213-.034-2.058-1.433-2.058-1.433-.093-.224.019-.533.23-.777.195-.257.474-.43.713-.385 0 0 1.75 1.517 1.827 1.718.112.292-.008.28-.092.652Z"/><path fill="#282828" d="M14.595 16.768c1.375-.778 1.775-2.132 1.232-3.123-.422-.77-1.114-.916-1.593-.544-.474.37-.516.81-.374 1.247.288.892 1.45 1.5.735 2.42Z"/><defs><linearGradient id="b" x1="1.436" x2="17.279" y1="5.901" y2="15.048" gradientUnits="userSpaceOnUse"><stop stop-color="#FF0"/><stop offset="1" stop-color="#FF0" stop-opacity="0"/></linearGradient><linearGradient id="c" x1="22.564" x2="6.722" y1="5.901" y2="15.048" gradientUnits="userSpaceOnUse"><stop stop-color="#0FF"/><stop offset="1" stop-color="#0FF" stop-opacity="0"/></linearGradient><linearGradient id="d" x1="12" x2="12" y1="23" y2="1" gradientUnits="userSpaceOnUse"><stop stop-color="#F0F"/><stop offset="1" stop-color="#F0F" stop-opacity="0"/></linearGradient><linearGradient id="f" x1="17.811" x2="8.967" y1="15.186" y2="10.08" gradientUnits="userSpaceOnUse"><stop stop-color="#FF0"/><stop offset="1" stop-color="#FF0" stop-opacity="0"/></linearGradient><linearGradient id="g" x1="6.016" x2="14.861" y1="15.186" y2="10.08" gradientUnits="userSpaceOnUse"><stop stop-color="#0FF"/><stop offset="1" stop-color="#0FF" stop-opacity="0"/></linearGradient><linearGradient id="h" x1="11.914" x2="11.914" y1="4.971" y2="15.184" gradientUnits="userSpaceOnUse"><stop stop-color="#F0F"/><stop offset="1" stop-color="#F0F" stop-opacity="0"/></linearGradient><linearGradient id="i" x1="3.901" x2="12.951" y1="5.12" y2="12.47" gradientUnits="userSpaceOnUse"><stop stop-color="#343434"/><stop offset="1" stop-color="#4D4D4D"/></linearGradient><linearGradient id="j" x1="14.892" x2="6.482" y1="14.676" y2="14.609" gradientUnits="userSpaceOnUse"><stop stop-color="#5596EA"/><stop offset="1" stop-color="#5596EA" stop-opacity="0"/></linearGradient><radialGradient id="a" cx="0" cy="0" r="1" gradientTransform="rotate(90 5.5 6.5) scale(22.0001)" gradientUnits="userSpaceOnUse"><stop stop-color="#fff"/><stop offset="1" stop-color="#BEBEBE"/></radialGradient></defs></svg>
